icon-svg/nut.svg

<svg xmlns="http://www.w3.org/2000/svg" data-name="Livello 1" viewBox="0 0 24 24"><path fill="#44739e" d="M21.54 7h-1.59v-.84c0-.61-.06-.71-.54-.92h-2.56a.56.56 0 0 0-.47.65V7H7.83v-.9a.78.78 0 0 0-.48-.9H4.77a.79.79 0 0 0-.52.91V7H.77a.73.73 0 0 0-.46.82 1 1 0 0 1 0 .25 1.34 1.34 0 0 1 0 .4.79.79 0 0 0 .46.83H23c.49-.08.66-.29.66-.83v-.68a.57.57 0 0 0-.2-.6A.89.89 0 0 0 23 7ZM1.56 10v11.14a.81.81 0 0 0 .52.79h19.56c.5-.13.63-.27.72-.83V10Zm4.16 2.19h.58a.26.26 0 0 1 .29.3v1h.72c.37 0 .45.06.45.44v.54c0 .33-.13.43-.45.38h-.75V16a.2.2 0 0 1-.22.16H6c-.62.14-.71 0-.71-.69v-.57a.92.92 0 0 0-.59-.08h-.29a.22.22 0 0 1-.24-.21 2.5 2.5 0 0 1 0-1c.14-.22.34-.14.52-.14h.6v-.83c.01-.39.09-.48.43-.48Zm11.1 1.27h2.73l.18.06.12.14a2.13 2.13 0 0 1 0 .94.27.27 0 0 1-.28.25h-2.72a.34.34 0 0 1-.36-.38 2.14 2.14 0 0 1 0-.67c.07-.32.02-.37.33-.37z" class="cls-1" data-name="Colore riempimento 1"/></svg>

<?xml version="1.0" encoding="UTF-8" standalone="no"?>
<svg
   id="Livello_1"
   data-name="Livello 1"
   viewBox="0 0 24 24"
   version="1.1"
   width="24"
   height="24"
   xmlns="http://www.w3.org/2000/svg"
   xmlns:svg="http://www.w3.org/2000/svg">
  <path id="Colore_riempimento_1" fill="#44739e" data-name="Colore riempimento 1" class="cls-1"
     d="M 21.54,7 H 20 19.95 V 6.16 c 0,-0.61 -0.06,-0.71 -0.54,-0.92 H 16.85 A 0.56,0.56 0 0 0 16.38,5.89 V 7 H 7.83 V 6.1 A 0.78,0.78 0 0 0 7.35,5.2 H 4.77 A 0.79,0.79 0 0 0 4.25,6.11 V 7 H 0.77 a 0.73,0.73 0 0 0 -0.46,0.82 1,1 0 0 1 0,0.25 1.34,1.34 0 0 1 0,0.4 0.79,0.79 0 0 0 0.46,0.83 H 23 C 23.49,9.22 23.66,9.01 23.66,8.47 V 7.79 A 0.57,0.57 0 0 0 23.46,7.19 0.89,0.89 0 0 0 23,7 Z M 1.56,10 v 11.14 a 0.81,0.81 0 0 0 0.52,0.79 h 19.56 c 0.5,-0.13 0.63,-0.27 0.72,-0.83 V 10 Z m 4.16,2.19 H 6.3 a 0.26,0.26 0 0 1 0.29,0.3 v 1 h 0.72 c 0.37,0 0.45,0.06 0.45,0.44 v 0.54 c 0,0.33 -0.13,0.43 -0.45,0.38 H 6.56 V 16 A 0.2,0.2 0 0 1 6.34,16.16 H 6 c -0.62,0.14 -0.71,0 -0.71,-0.69 V 14.9 A 0.92,0.92 0 0 0 4.7,14.82 H 4.41 a 0.22,0.22 0 0 1 -0.24,-0.21 2.5,2.5 0 0 1 0,-1 c 0.14,-0.22 0.34,-0.14 0.52,-0.14 h 0.6 V 12.64 C 5.3,12.25 5.38,12.16 5.72,12.16 Z m 11.1,1.27 h 2.73 l 0.18,0.06 0.12,0.14 a 2.13,2.13 0 0 1 0,0.94 0.27,0.27 0 0 1 -0.28,0.25 h -2.72 a 0.34,0.34 0 0 1 -0.36,-0.38 2.14,2.14 0 0 1 0,-0.67 c 0.07,-0.32 0.02,-0.37 0.33,-0.37 z" />
</svg>
